public/images/icons/32x32/gestion-de-classe_32_white.svg

<?xml version="1.0" encoding="UTF-8"?>
<svg width="32px" height="32px" viewBox="0 0 32 32" version="1.1" xmlns="http://www.w3.org/2000/svg" xmlns:xlink="http://www.w3.org/1999/xlink">
    <title>icone/32x32/classroom_32_white</title>
    <g id="icone/32x32/classroom_32_white" stroke="none" stroke-width="1" fill="none" fill-rule="evenodd">
        <g id="noun_blackboard_1445800" transform="translate(4.000000, 7.000000)" fill="#FFFFFF" fill-rule="nonzero">
            <g id="Group" transform="translate(0.000000, 0.173951)">
                <path d="M0.494318182,0.0987763636 C0.21321513,0.125269506 -0.00121747263,0.361884792 -5.1583724e-06,0.644230909 L-5.1583724e-06,2.82604909 C-5.1583724e-06,3.12728285 0.244220789,3.37147353 0.545454545,3.37150364 L1.09090909,3.37150364 L1.09090909,14.8260491 L0.545454545,14.8260491 C0.528418463,14.8252497 0.511354265,14.8252497 0.494318182,14.8260491 C0.21321513,14.8525422 -0.00121747263,15.0891575 -5.1583724e-06,15.3715036 L-5.1583724e-06,17.5533218 C-5.1583724e-06,17.8545556 0.244220789,18.0987764 0.545454545,18.0987764 L23.4545455,18.0987764 C23.7557792,18.0987764 23.9999948,17.8545556 23.9999948,17.5533218 L23.9999948,15.3715036 C23.9999948,15.0702699 23.7557792,14.8260792 23.4545455,14.8260491 L22.9090909,14.8260491 L22.9090909,5.00786727 C22.9124748,4.85077844 22.8479589,4.69985909 22.7320656,4.59375961 C22.6161723,4.48766014 22.4601578,4.43668539 22.3039773,4.45389 C22.0229612,4.48477092 21.8121015,4.72522493 21.8181818,5.00786727 L21.8181818,14.8260491 L20.1818182,14.8260491 L20.1818182,12.0987764 C20.1817881,11.7975426 19.9375974,11.5533519 19.6363636,11.5533218 L14.1818182,11.5533218 C14.1647821,11.5525225 14.1477179,11.5525225 14.1306818,11.5533218 C13.8495788,11.579815 13.6351462,11.8164303 13.6363636,12.0987764 L13.6363636,14.8260491 L2.18181818,14.8260491 L2.18181818,3.37150364 L23.4545455,3.37150364 C23.7557792,3.37147353 23.9999948,3.12728285 23.9999948,2.82604909 L23.9999948,0.644230909 C23.9999948,0.342997152 23.7557792,0.0988064674 23.4545455,0.0987763636 L0.545454545,0.0987763636 C0.528418463,0.0979769985 0.511354265,0.0979769985 0.494318182,0.0987763636 Z M1.09090909,1.18968545 L22.9090909,1.18968545 L22.9090909,2.28059455 L1.09090909,2.28059455 L1.09090909,1.18968545 Z M14.7272727,12.6442309 L19.0909091,12.6442309 L19.0909091,14.8260491 L14.7272727,14.8260491 L14.7272727,12.6442309 Z M1.09090909,15.9169582 L22.9090909,15.9169582 L22.9090909,17.0078673 L1.09090909,17.0078673 L1.09090909,15.9169582 Z" id="Shape"></path>
            </g>
        </g>
    </g>
</svg>

<svg height="32" viewBox="0 0 32 32" width="32" xmlns="http://www.w3.org/2000/svg"><path d="m.49431818.09877636c-.28110305.02649315-.49553565.26310843-.49432334.54545455v2.18181818c0 .30123376.24422595.54542444.54545971.54545455h.54545454v11.45454546h-.54545454c-.01703609-.0007994-.03410028-.0007994-.05113637 0-.28110305.0264931-.49553565.2631084-.49432334.5454545v2.1818182c0 .3012338.24422595.5454546.54545971.5454546h22.90909095c.3012337 0 .5454493-.2442208.5454493-.5454546v-2.1818182c0-.3012337-.2442156-.5454244-.5454493-.5454545h-.5454546v-9.81818183c.0033839-.15708883-.061132-.30800818-.1770253-.41410766-.1158933-.10609947-.2719078-.15707422-.4280883-.13986961-.2810161.03088092-.4918758.27133493-.4857955.55397727v9.81818183h-1.6363636v-2.7272727c-.0000301-.3012338-.2442208-.5454245-.5454546-.5454546h-5.4545454c-.0170361-.0007993-.0341003-.0007993-.0511364 0-.281103.0264932-.4955356.2631085-.4943182.5454546v2.7272727h-11.45454542v-11.45454546h21.27272732c.3012337-.00003011.5454493-.24422079.5454493-.54545455v-2.18181818c0-.30123376-.2442156-.54542444-.5454493-.54545455h-22.90909095c-.01703609-.00079936-.03410028-.00079936-.05113637 0zm.59659091 1.09090909h21.81818181v1.0909091h-21.81818181zm13.63636361 11.45454545h4.3636364v2.1818182h-4.3636364zm-13.63636361 3.2727273h21.81818181v1.0909091h-21.81818181z" fill="#fff" transform="translate(4 7.174)"/></svg>
